src/lib/assets/images/logos/vizchitra-logo-type.svg

<svg xmlns="http://www.w3.org/2000/svg" fill="none" viewBox="0 0 2048 530">
  <path fill="#111" stroke="#fff" stroke-width="20" d="m113.428 416.796 1.359 8.404h129.475l2.124-7.153 87.8-295.6 3.816-12.847h-93.726l-1.951 7.473-57.011 218.285-27.292-217.006-1.101-8.752H63.753l1.875 11.596z"/>
  <path fill="#111" stroke="#fff" stroke-width="20" d="m378.6 416.613 1.226 8.587h88.903l-1.63-11.414-42.2-295.6-1.225-8.586h-88.903l1.629 11.413z"/>
  <path fill="#111" stroke="#fff" stroke-width="20" d="M465.4 415.2v10h233.4v-77.4H578.529l118.329-160.978 1.942-2.642V109.6H465.4v76.9h121.189L467.318 350.211l-1.918 2.632z"/>
  <path fill="#111" stroke="#fff" stroke-width="15" d="m765.297 113.373-.011.005-.011.004c-15.717 7.204-28.013 18.018-36.632 32.603-8.448 14.297-13.799 31.654-16.191 51.832-2.354 19.853-3.158 42.741-2.248 68.535.81 25.497 3.141 48.087 6.826 67.638 3.746 19.876 10.265 36.885 19.652 50.804 9.5 14.086 22.202 24.691 37.95 31.75C790.415 423.619 810.258 427 833.8 427c10.102 0 20.325-.408 30.666-1.329a492 492 0 0 0 29.55-3.554l.012-.002c9.273-1.411 17.537-2.837 24.743-4.381l6.355-1.362-.443-6.483-2.2-32.2-.568-8.3-8.197 1.422c-9.61 1.667-21.651 3.347-36.041 4.935-14.338 1.582-23.045 2.354-39.177 2.354-15.862 0-28.068-2.32-37.032-6.498-8.88-4.138-15.626-10.36-20.568-18.944l-.009-.014-.008-.014c-5.107-8.78-8.985-20.445-11.49-35.094-2.529-14.782-4.206-32.332-5.098-52.707-.592-20.581-.189-38.324 1.269-53.092 1.44-14.591 4.47-26.128 8.837-34.969 4.286-8.38 10.385-14.422 18.659-18.266l.042-.019.041-.02c8.396-4.027 20.245-6.263 35.857-6.263 7.557 0 16.063.388 25.555 1.081 9.49.692 18.749 1.579 27.885 2.758 9.288 1.198 16.905 2.275 23.078 3.433l8.769 1.644.112-8.921.4-31.7.076-6.022-5.864-1.375c-6.606-1.548-14.57-3.077-23.712-4.684q-13.968-2.454-29.674-3.979a267 267 0 0 1-5.27-.568c-5.493-.633-8.387-.967-26.555-.967-23.249 0-42.907 3.383-58.503 10.473Zm192.959 302.743.81 6.584h53.394l-1.01-8.396L996.356 288.8h130.994l15.3 127.295.8 6.605h53.43l-1.04-8.416-36.9-299.9-.81-6.584h-53.42l1.05 8.426 15.45 124.174H990.224l-15.682-126.026-.818-6.574H920.32l1.036 8.416zm286.614.139.92 6.445h53.45l-1.21-8.555-42.6-299.9-.92-6.445h-53.45l1.21 8.555zm110.53 6.445h44.96l.7-6.721 27.1-259.279h89.03l.76-6.643 3.9-33.9.96-8.357h-232.4l-.76 6.643-3.9 33.9-.96 8.357h90.09l-26.94 257.72 7.36.769v7.511zm134.67-8.555-.07.525v8.13h52.33l.9-6.466 14.7-105.634h69.68l33.94 106.87 1.66 5.23h56.58l-3.03-9.732-35.28-113.194c17.27-6.974 31.11-17.504 41.39-31.668l.01-.01v-.01c11.46-15.888 18.52-35.307 21.55-57.945 3.3-22.502 2.2-41.775-4.18-57.365-6.32-15.667-17.37-27.254-32.62-34.543-14.94-7.143-33.85-10.533-56.23-10.533h-117.81l-.92 6.445zm200.41-209.154-.02.127-.01.127c-1.3 11.316-4.43 21.251-9.3 30.007-4.76 8.551-11.22 15.166-19.44 19.974-7.97 4.663-18.37 7.274-31.61 7.274h-65.25l15.25-106.7h68.3c19.03 0 30.25 4.535 36.14 11.601 6 7.205 8.71 19.093 5.94 37.59ZM1735.6 422.7h43.37l1.55-5.459 19.35-68.441h111.82l15.19 68.034 1.31 5.866h53.96l-2.38-9.354-76.5-299.9-1.44-5.646h-91.07l-1.5 5.546-80.9 299.9 7.14 1.927v7.527zm165-121.9h-89.1l39.44-145.8h10.22z"/>
</svg>

<svg viewBox="0 0 2048 530" fill="none" xmlns="http://www.w3.org/2000/svg">
<path d="M113.428 416.796L114.787 425.2H123.3H236.8H244.262L246.386 418.047L334.186 122.447L338.002 109.6H324.6H252H244.276L242.325 117.073L185.314 335.358L158.022 118.352L156.921 109.6H148.1H75.5H63.7531L65.6282 121.196L113.428 416.796Z" fill="#111111" stroke="white" stroke-width="20"/>
<path d="M378.6 416.613L379.826 425.2H388.5H457.2H468.729L467.099 413.786L424.899 118.186L423.674 109.6H415H346.3H334.771L336.4 121.013L378.6 416.613Z" fill="#111111" stroke="white" stroke-width="20"/>
<path d="M465.4 415.2V425.2H475.4H688.8H698.8V415.2V357.8V347.8H688.8H578.529L696.858 186.822L698.8 184.18V180.9V119.6V109.6H688.8H475.4H465.4V119.6V176.5V186.5H475.4H586.589L467.318 350.211L465.4 352.843V356.1V415.2Z" fill="#111111" stroke="white" stroke-width="20"/>
<path d="M765.297 113.373L765.286 113.378L765.275 113.382C749.558 120.586 737.262 131.4 728.643 145.985C720.195 160.282 714.844 177.639 712.452 197.817C710.098 217.67 709.294 240.558 710.204 266.352C711.014 291.849 713.345 314.439 717.03 333.99C720.776 353.866 727.295 370.875 736.682 384.794C746.182 398.88 758.884 409.485 774.632 416.544C790.415 423.619 810.258 427 833.8 427C843.902 427 854.125 426.592 864.466 425.671C874.73 424.756 884.581 423.537 894.016 422.117L894.028 422.115C903.301 420.704 911.565 419.278 918.771 417.734L925.126 416.372L924.683 409.889L922.483 377.689L921.915 369.389L913.718 370.811C904.108 372.478 892.067 374.158 877.677 375.746C863.339 377.328 854.632 378.1 838.5 378.1C822.638 378.1 810.432 375.78 801.468 371.602C792.588 367.464 785.842 361.242 780.9 352.658L780.891 352.644L780.883 352.63C775.776 343.85 771.898 332.185 769.393 317.536C766.864 302.754 765.187 285.204 764.295 264.829C763.703 244.248 764.106 226.505 765.564 211.737C767.004 197.146 770.034 185.609 774.401 176.768C778.687 168.388 784.786 162.346 793.06 158.502L793.102 158.483L793.143 158.463C801.539 154.436 813.388 152.2 829 152.2C836.557 152.2 845.063 152.588 854.555 153.281C864.045 153.973 873.304 154.86 882.44 156.039C891.728 157.237 899.345 158.314 905.518 159.472L914.287 161.116L914.399 152.195L914.799 120.495L914.875 114.473L909.011 113.098C902.405 111.55 894.441 110.021 885.299 108.414C875.988 106.777 866.095 105.452 855.625 104.435C853.46 104.225 851.816 104.036 850.355 103.867C844.862 103.234 841.968 102.9 823.8 102.9C800.551 102.9 780.893 106.283 765.297 113.373Z" fill="#111111" stroke="white" stroke-width="15"/>
<path d="M958.256 416.116L959.066 422.7H965.7H1004H1012.46L1011.45 414.304L996.356 288.8H1127.35L1142.65 416.095L1143.45 422.7H1150.1H1188.4H1196.88L1195.84 414.284L1158.94 114.384L1158.13 107.8H1151.5H1113.2H1104.71L1105.76 116.226L1121.21 240.4H990.224L974.542 114.374L973.724 107.8H967.1H928.8H920.32L921.356 116.216L958.256 416.116Z" fill="#111111" stroke="white" stroke-width="15"/>
<path d="M1244.87 416.255L1245.79 422.7H1252.3H1290.6H1299.24L1298.03 414.145L1255.43 114.245L1254.51 107.8H1248H1209.7H1201.06L1202.27 116.355L1244.87 416.255Z" fill="#111111" stroke="white" stroke-width="15"/>
<path d="M1355.4 422.7H1362.16H1393.6H1400.36L1401.06 415.979L1428.16 156.7H1510.5H1517.19L1517.95 150.057L1521.85 116.157L1522.81 107.8H1514.4H1297.1H1290.41L1289.65 114.443L1285.75 148.343L1284.79 156.7H1293.2H1374.88L1347.94 414.42L1355.3 415.189V415.2V422.7H1355.4Z" fill="#111111" stroke="white" stroke-width="15"/>
<path d="M1490.07 414.145L1490 414.67V415.2V415.3V422.8H1497.5H1535.8H1542.33L1543.23 416.334L1557.93 310.7H1627.61L1661.55 417.57L1663.21 422.8H1668.7H1709.6H1719.79L1716.76 413.068L1681.48 299.874C1698.75 292.9 1712.59 282.37 1722.87 268.206L1722.88 268.196L1722.88 268.186C1734.34 252.298 1741.4 232.879 1744.43 210.241C1747.73 187.739 1746.63 168.466 1740.25 152.876C1733.93 137.209 1722.88 125.622 1707.63 118.333C1692.69 111.19 1673.78 107.8 1651.4 107.8H1540.1H1533.59L1532.67 114.245L1490.07 414.145ZM1690.48 204.991L1690.46 205.118L1690.45 205.245C1689.15 216.561 1686.02 226.496 1681.15 235.252C1676.39 243.803 1669.93 250.418 1661.71 255.226C1653.74 259.889 1643.34 262.5 1630.1 262.5H1564.85L1580.1 155.8H1648.4C1667.43 155.8 1678.65 160.335 1684.54 167.401C1690.54 174.606 1693.25 186.494 1690.48 204.991Z" fill="#111111" stroke="white" stroke-width="15"/>
<path d="M1735.6 422.7H1741.34H1773.3H1778.97L1780.52 417.241L1799.87 348.8H1911.69L1926.88 416.834L1928.19 422.7H1934.2H1972.5H1982.15L1979.77 413.346L1903.27 113.446L1901.83 107.8H1896H1816.5H1810.76L1809.26 113.346L1728.36 413.246L1735.5 415.173V415.2V422.7H1735.6ZM1900.6 300.8H1811.5L1850.94 155H1861.16L1900.6 300.8Z" fill="#111111" stroke="white" stroke-width="15"/>
</svg>
